X:1
T:Holly Ho
B:Palmer, Roy, Povery Knock, 1974, Cambridge University Press
S:Joe Mallen of Kinver, Worcestershire
Z:Roy Palmer
F:http://www.folkinfo.org/songs
M:6/8     %Meter
L:1/8     %
K:C
C |E G C E G C |E D D D2    
w:I'll sing you a song, a pe-cu-li-ar song, 
D |D F B, D F B, | D C C C2    
w:And if you will lis-ten it won't take we long.
C |E G C E G C |E D D D2    
w:The rhyme's ve-ry pret-ty, I'm sure you'll a-gree,
D |D F B, D F B, | D C C C
w:And no doubt you'll all sing this chor-us with me.
c B |A3-A c A |G3-G E F |G G3/2 G/ F E D |C3- C2 |]
w:Hol-ly ho,* hol-ly ho,* Fol the whack dol the doo-dle da day *